PortableApps/LibreOfficePortable/App/libreoffice/help/media/icon-themes/cmd/lc_autoformat.svg

<svg viewBox="0 0 24 24" xmlns="http://www.w3.org/2000/svg"><path d="m3 6v15h4.6152344c.0649637-.095348.1325482-.212225.2011718-.361328.25728-.559007.3463291-1.499466 1.3066407-2.173828.446615-.313632.9495721-.398572 1.4335941-.388672 1.059337-1.498513 2.214763-3.051617 3.447265-4.427734.041738-.050854.11512-.153647.22461-.283204l.013672-.015625.013671-.013671c.170983-.186185.297915-.292592.365235-.363282.189904-.214587.378474-.414023.5625-.611328 1.80927-1.93976 3.952314-3.8025069 5.816406-5.251953v-1.109375zm18 5.322266c-1.229199 1.659378-2.300608 2.962779-3.136719 3.896484-.359021.400939-.684621.769203-.978515 1.072266l-.00586.005859c-.907677.969308-2.309277 2.291608-3.966797 3.738281.074323.312497.099979.638279.083985.964844h8.003906z" fill="#fff"/><path d="m2 6v15c0 .554.446 1 1 1h2.8984375l-.1542969-.667969h1.2558594c.2828047.000115.3516676-.049192.4550781-.138672.0482428-.041749.1033411-.109971.1601563-.193359h-4.6152344v-3h5v2.148438c.1689601-.50378.3695107-1.081242 1-1.582032v-.566406h1.613281c.23517-.332047.49003-.66546.734375-1h-2.347656v-3h4.701172c.101219-.116524.200442-.237352.302734-.351562.041738-.050855.11512-.153647.22461-.283204l.013672-.015625.013671-.013671c.158148-.172209.267428-.265365.337891-.335938h-5.59375v-3h6v2.560547c.060868-.065249.123581-.134875.183594-.199219.259585-.278307.544264-.547224.816406-.822266v-1.539062h1.591797c.366973-.3373241.733168-.6796173 1.101562-1h-2.693359v-3h-1v3h-6v-3h-1v3h-5v-3zm19 0v1.109375c.342514-.2663259.68154-.5293764 1-.7636719v-.3457031zm1.791016 1c-2.024439 1.4714687-4.730024 3.741196-6.876954 6.042969-.194876.208938-.384252.409892-.568359.61914-.116389.122214-.237166.222918-.353515.34961-.07344.0869-.14368.184779-.214844.271484-1.334983 1.486007-2.634653 3.205831-3.767578 4.837891-.376844-.169964-.82793-.178171-1.3125004.162109-.945687.664092-.7495526 3.049617-2.6972656 3.048828.184409.802815 2.1784206.793524 3.525391.435547 1.271369-.337886 1.6599-1.525404 1.417968-2.515625-.03867-.158268-.114937-.320081-.210937-.476562 1.984388-1.685837 3.42569-3.102846 4.429687-4.175782.270428-.278544.595111-.642697.957032-1.046875 1.353947-1.511986 3.289303-3.893976 5.671875-7.552734zm-.791016 2.9492188c-.351993.5006052-.672989.9315922-1 1.3730472v1.677734h-1.283203c-.274852.345315-.554739.700752-.804688 1h2.087891v3h-4.830078c-.364649.365766-.716727.720262-1.169922 1.144531v2.855469h-2.003906c-.016534.337573-.090753.673363-.222656 1h8.226562c.554 0 1-.446 1-1zm-19 .0507812h5v3h-5zm0 4h5v3h-5zm13 4h5v3h-5z" fill="#808080"/><path d="m2 2v4h20v-4zm8.394531 17.009766c-.220448.019237-.4549804.103297-.6972654.273437-.945687.664092-.7495526 3.049617-2.6972656 3.048828.184409.802815 2.1784206.793524 3.525391.435547 1.271369-.337886 1.6599-1.525404 1.417968-2.515625-.03867-.158268-.114937-.320081-.210937-.476562l-.722656-.654297c-.188422-.084982-.394786-.130566-.615235-.111328z" fill="#4d82b8"/></svg>

<svg viewBox="0 0 24 24" xmlns="http://www.w3.org/2000/svg">
  <path
     style="fill:#ffffff"
     d="M 3 6 L 3 21 L 7.6152344 21 C 7.6801981 20.904652 7.7477826 20.787775 7.8164062 20.638672 C 8.0736862 20.079665 8.1627353 19.139206 9.1230469 18.464844 C 9.5696619 18.151212 10.072619 18.066272 10.556641 18.076172 C 11.615978 16.577659 12.771404 15.024555 14.003906 13.648438 C 14.045644 13.597584 14.119026 13.494791 14.228516 13.365234 L 14.242188 13.349609 L 14.255859 13.335938 C 14.426842 13.149753 14.553774 13.043346 14.621094 12.972656 C 14.810998 12.758069 14.999568 12.558633 15.183594 12.361328 C 16.992864 10.421568 19.135908 8.5588211 21 7.109375 L 21 6 L 3 6 z M 21 11.322266 C 19.770801 12.981644 18.699392 14.285045 17.863281 15.21875 C 17.50426 15.619689 17.17866 15.987953 16.884766 16.291016 L 16.878906 16.296875 C 15.971229 17.266183 14.569629 18.588483 12.912109 20.035156 C 12.986432 20.347653 13.012088 20.673435 12.996094 21 L 21 21 L 21 11.322266 z "
    />
  <path
     style="fill:#808080"
     d="M 2 6 L 2 21 C 2 21.554 2.446 22 3 22 L 5.8984375 22 L 5.7441406 21.332031 L 7 21.332031 C 7.2828047 21.332146 7.3516676 21.282839 7.4550781 21.193359 C 7.5033209 21.15161 7.5584192 21.083388 7.6152344 21 L 3 21 L 3 18 L 8 18 L 8 20.148438 C 8.1689601 19.644658 8.3695107 19.067196 9 18.566406 L 9 18 L 10.613281 18 C 10.848451 17.667953 11.103311 17.33454 11.347656 17 L 9 17 L 9 14 L 13.701172 14 C 13.802391 13.883476 13.901614 13.762648 14.003906 13.648438 C 14.045644 13.597583 14.119026 13.494791 14.228516 13.365234 L 14.242188 13.349609 L 14.255859 13.335938 C 14.414007 13.163729 14.523287 13.070573 14.59375 13 L 9 13 L 9 10 L 15 10 L 15 12.560547 C 15.060868 12.495298 15.123581 12.425672 15.183594 12.361328 C 15.443179 12.083021 15.727858 11.814104 16 11.539062 L 16 10 L 17.591797 10 C 17.95877 9.6626759 18.324965 9.3203827 18.693359 9 L 16 9 L 16 6 L 15 6 L 15 9 L 9 9 L 9 6 L 8 6 L 8 9 L 3 9 L 3 6 L 2 6 z M 21 6 L 21 7.109375 C 21.342514 6.8430491 21.68154 6.5799986 22 6.3457031 L 22 6 L 21 6 z M 22.791016 7 C 20.766577 8.4714687 18.060992 10.741196 15.914062 13.042969 C 15.719186 13.251907 15.52981 13.452861 15.345703 13.662109 C 15.229314 13.784323 15.108537 13.885027 14.992188 14.011719 C 14.918748 14.098619 14.848508 14.196498 14.777344 14.283203 C 13.442361 15.76921 12.142691 17.489034 11.009766 19.121094 C 10.632922 18.95113 10.181836 18.942923 9.6972656 19.283203 C 8.7515786 19.947295 8.947713 22.33282 7 22.332031 C 7.184409 23.134846 9.1784206 23.125555 10.525391 22.767578 C 11.79676 22.429692 12.185291 21.242174 11.943359 20.251953 C 11.904689 20.093685 11.828422 19.931872 11.732422 19.775391 C 13.71681 18.089554 15.158112 16.672545 16.162109 15.599609 C 16.432537 15.321065 16.75722 14.956912 17.119141 14.552734 C 18.473088 13.040748 20.408444 10.658758 22.791016 7 z M 22 9.9492188 C 21.648007 10.449824 21.327011 10.880811 21 11.322266 L 21 13 L 19.716797 13 C 19.441945 13.345315 19.162058 13.700752 18.912109 14 L 21 14 L 21 17 L 16.169922 17 C 15.805273 17.365766 15.453195 17.720262 15 18.144531 L 15 21 L 12.996094 21 C 12.97956 21.337573 12.905341 21.673363 12.773438 22 L 21 22 C 21.554 22 22 21.554 22 21 L 22 9.9492188 z M 3 10 L 8 10 L 8 13 L 3 13 L 3 10 z M 3 14 L 8 14 L 8 17 L 3 17 L 3 14 z M 16 18 L 21 18 L 21 21 L 16 21 L 16 18 z "
     />
  <path
     style="fill:#4d82b8"
     d="M 2 2 L 2 6 L 22 6 L 22 2 L 2 2 z M 10.394531 19.009766 C 10.174083 19.029003 9.9395506 19.113063 9.6972656 19.283203 C 8.7515786 19.947295 8.947713 22.33282 7 22.332031 C 7.184409 23.134846 9.1784206 23.125555 10.525391 22.767578 C 11.79676 22.429692 12.185291 21.242174 11.943359 20.251953 C 11.904689 20.093685 11.828422 19.931872 11.732422 19.775391 L 11.009766 19.121094 C 10.821344 19.036112 10.61498 18.990528 10.394531 19.009766 z "
     />
</svg>
